X: 11133
Q: "Pathetically slow."
M: 6/8
L: 1/16
K: Am
{AB}c3BA2 (e2B2d2) | .c2.A2.A2 A4 AB |\
{AB}c2B2A2 (e2^f2g2) | B2G2G2 G4 GB |\
{AB}c2B2A2 ({^G}e2B2d2) | c2e2a2 e4d2 |\
c3BA2 E2A2^G2 | B2A2A2 A4 :|
e2 |\
a2^g2a2 e2(=gf)ed | .c2.A2.A2 A4 AB |\
{AB}c2B2A2 e2^f2g2 | B2G2G2 G4e2 |\
a2^g2a2 e2(=gf)ed | c2A2A2 A2e2d2 |\
c3BA2 E2A2^G2 | B2A2A2 A4 e2 |
a2^g2a2 e2(=gf)ed | .c2.A2.A2 A4 AB |\
{AB}c2B2A2 e2^f2g2 | B2G2G2 G4e2 |\
(a2e2).g2 (f2d2).B2 | (e2c2).A2 B2^G2E2 |\


